assets/social-instagram.svg

<svg width="40" height="41" viewBox="0 0 40 41" fill="none" xmlns="http://www.w3.org/2000/svg">
<g clip-path="url(#clip0_51_546)">
<path d="M19.9785 0C25.4963 0.000110372 30.2026 1.95539 34.1055 5.86328C38.0112 9.77216 39.9677 14.486 39.9678 20.0098C39.9678 25.5327 38.0114 30.2433 34.1055 34.1533C30.2026 38.0662 25.4963 40.0155 19.9785 40.0156C14.4647 40.0156 9.75744 38.0661 5.85352 34.1533C1.95252 30.2443 -0.00195312 25.5338 -0.00195312 20.0098C-0.0018978 14.4859 1.95255 9.77223 5.85449 5.86328C9.75748 1.95534 14.4646 0 19.9785 0ZM19.9805 10.001C17.2651 10.0062 16.925 10.0183 15.8584 10.0703C14.7945 10.1205 14.0678 10.2895 13.4326 10.5391C12.7752 10.7953 12.2185 11.1399 11.6641 11.6963C11.1097 12.2527 10.7681 12.8103 10.5137 13.4688C10.2675 14.1052 10.1007 14.8322 10.0537 15.8965C10.0067 16.9611 9.99578 17.3039 10.001 20.0195C10.0062 22.7345 10.0187 23.0751 10.0703 24.1416C10.1211 25.2054 10.2904 25.932 10.54 26.5674C10.7966 27.2248 11.1397 27.7823 11.6963 28.3369C12.2527 28.8913 12.81 29.2316 13.4697 29.4863C14.1056 29.7321 14.8333 29.8997 15.8975 29.9463C16.9618 29.9929 17.3049 30.0042 20.0195 29.999C22.734 29.9938 23.0763 29.9812 24.1426 29.9307C25.2089 29.8801 25.9319 29.7102 26.5674 29.4619C27.2248 29.2047 27.7827 28.8615 28.3369 28.3047C28.891 27.7479 29.2321 27.19 29.4863 26.5312C29.7327 25.8953 29.9001 25.1679 29.9463 24.1045C29.9929 23.0371 30.0042 22.6957 29.999 19.9805C29.9938 17.2655 29.9813 16.9248 29.9307 15.8584C29.88 14.7922 29.7103 14.0683 29.4609 13.4326C29.2039 12.7752 28.8611 12.2181 28.3047 11.6631C27.7484 11.1083 27.1897 10.7672 26.5312 10.5137C25.8949 10.2675 25.1678 10.0997 24.1035 10.0537C23.0393 10.0077 22.6961 9.99578 19.9805 10.001ZM19.9844 11.8047C22.6534 11.7989 22.9704 11.8091 24.0254 11.8555C24.9994 11.8979 25.5297 12.0591 25.8818 12.1953C26.3492 12.3753 26.6818 12.5918 27.0332 12.9414C27.3846 13.291 27.6008 13.6232 27.7832 14.0908C27.921 14.4422 28.0849 14.9705 28.1309 15.9453C28.1811 16.9999 28.1925 17.3163 28.1973 19.9854C28.2021 22.6544 28.1927 22.9717 28.1465 24.0254C28.1039 25.0004 27.9424 25.5306 27.8066 25.8838C27.6267 26.3505 27.4095 26.6832 27.0605 27.0342C26.7115 27.3853 26.3787 27.6018 25.9121 27.7842C25.5601 27.9216 25.0304 28.0864 24.0566 28.1328C23.002 28.1824 22.686 28.1924 20.0156 28.1982C17.3453 28.204 17.0301 28.1931 15.9756 28.1475L15.6299 28.126C14.8707 28.0647 14.4268 27.9263 14.1182 27.8076C13.651 27.6276 13.3184 27.4097 12.9668 27.0615C12.6152 26.7133 12.3992 26.3793 12.2168 25.9131C12.0798 25.5603 11.9147 25.0315 11.8691 24.0566C11.8195 23.0029 11.8085 22.6863 11.8027 20.0166C11.7969 17.347 11.8073 17.0307 11.8535 15.9766C11.8951 15.0027 12.058 14.4727 12.1934 14.1201C12.3733 13.6524 12.5905 13.3201 12.9395 12.9688C13.2884 12.6174 13.6214 12.4011 14.0879 12.2188C14.4403 12.0811 14.9697 11.9175 15.9443 11.8711C16.9986 11.8211 17.3153 11.8105 19.9844 11.8047ZM19.9902 14.8652C17.1545 14.8708 14.8599 17.1743 14.8652 20.0098C14.8708 22.8458 17.1743 25.1402 20.0098 25.1348C22.8451 25.1293 25.14 22.8261 25.1348 19.9902C25.1294 17.1543 22.826 14.8597 19.9902 14.8652ZM18.7188 16.9229C19.3272 16.6695 19.9969 16.6023 20.6436 16.7295C21.2904 16.8568 21.8855 17.1725 22.3525 17.6377C22.8196 18.1029 23.1386 18.6965 23.2686 19.3428C23.3985 19.9891 23.3331 20.6599 23.082 21.2695C22.8309 21.879 22.4048 22.4003 21.8574 22.7676C21.31 23.1349 20.6661 23.3317 20.0068 23.333C19.5691 23.3339 19.1353 23.2487 18.7305 23.082C18.3257 22.9153 17.9576 22.6703 17.6475 22.3613C17.3374 22.0524 17.0911 21.6853 16.9229 21.2812C16.7547 20.8774 16.6679 20.4443 16.667 20.0068C16.6657 19.3476 16.8595 18.7022 17.2246 18.1533C17.5898 17.6044 18.1101 17.1764 18.7188 16.9229ZM25.3252 13.4531C25.007 13.4538 24.7021 13.5812 24.4775 13.8066C24.253 14.032 24.1274 14.3372 24.1279 14.6553C24.1283 14.8925 24.199 15.1242 24.3311 15.3213C24.4632 15.5184 24.6507 15.6722 24.8701 15.7627C25.0895 15.8531 25.3309 15.8767 25.5635 15.8301C25.7962 15.7834 26.0102 15.6681 26.1777 15.5C26.345 15.332 26.459 15.1183 26.5049 14.8857C26.5507 14.653 26.5267 14.4114 26.4355 14.1924C26.3443 13.9733 26.1898 13.7858 25.9922 13.6543C25.7946 13.5229 25.5625 13.4527 25.3252 13.4531Z" fill="white"/>
</g>
<defs>
<clipPath id="clip0_51_546">
<rect width="39.967" height="40.016" fill="white"/>
</clipPath>
</defs>
</svg>

<svg xmlns="http://www.w3.org/2000/svg" width="40" height="41" fill="none"><g clip-path="url(#a)"><path fill="#fff" d="M19.979 0q8.274 0 14.127 5.863c3.905 3.91 5.862 8.623 5.862 14.147 0 5.523-1.957 10.233-5.863 14.143-3.902 3.913-8.609 5.863-14.126 5.863-5.514 0-10.222-1.95-14.125-5.863-3.901-3.909-5.856-8.62-5.856-14.143S1.953 9.772 5.854 5.863Q11.708 0 19.98 0m.002 10.001c-2.716.005-3.056.017-4.123.07-1.064.05-1.79.219-2.425.468-.658.256-1.214.6-1.769 1.157a4.9 4.9 0 0 0-1.15 1.773c-.246.636-.413 1.363-.46 2.428S9.996 17.304 10 20.02c.005 2.715.018 3.055.07 4.122.05 1.063.22 1.79.469 2.425a4.9 4.9 0 0 0 1.156 1.77 4.9 4.9 0 0 0 1.774 1.15c.636.245 1.363.413 2.428.46 1.064.046 1.407.057 4.122.052s3.056-.018 4.123-.068c1.066-.05 1.789-.22 2.424-.47a4.9 4.9 0 0 0 1.77-1.156 4.9 4.9 0 0 0 1.15-1.774c.246-.636.413-1.363.46-2.426.046-1.068.057-1.41.052-4.125s-.018-3.055-.068-4.122-.22-1.79-.47-2.425a4.9 4.9 0 0 0-1.156-1.77 4.9 4.9 0 0 0-1.774-1.15c-.636-.245-1.363-.413-2.427-.46-1.065-.045-1.408-.057-4.123-.052m.003 1.804c2.67-.006 2.986.004 4.041.05.974.043 1.505.204 1.857.34.467.18.8.397 1.151.746.352.35.568.682.75 1.15.138.351.302.88.348 1.854.05 1.055.061 1.371.066 4.04s-.004 2.987-.05 4.04c-.043.975-.205 1.506-.34 1.859-.18.466-.397.8-.746 1.15a3.1 3.1 0 0 1-1.149.75c-.352.138-.882.302-1.855.349-1.055.05-1.371.06-4.041.065s-2.986-.005-4.04-.05l-.346-.022c-.76-.061-1.203-.2-1.512-.318-.467-.18-.8-.398-1.151-.747a3.1 3.1 0 0 1-.75-1.148c-.137-.353-.302-.881-.348-1.856-.05-1.054-.06-1.37-.066-4.04s.004-2.986.05-4.04c.042-.974.205-1.504.34-1.857.18-.468.398-.8.747-1.151a3.1 3.1 0 0 1 1.148-.75c.352-.138.882-.301 1.856-.348 1.055-.05 1.371-.06 4.04-.066m.006 3.06a5.135 5.135 0 1 0 .02 10.27 5.135 5.135 0 0 0-.02-10.27m-1.271 2.058a3.333 3.333 0 1 1 2.562 6.153 3.333 3.333 0 0 1-2.562-6.153m6.606-3.47a1.2 1.2 0 1 0 .007 2.402 1.2 1.2 0 0 0-.007-2.402"/></g><defs><clipPath id="a"><path fill="#fff" d="M0 0h39.967v40.016H0z"/></clipPath></defs></svg>
